Numix-GalliumOS/64/mimetypes/application-database.svg

<svg xmlns="http://www.w3.org/2000/svg" xmlns:xlink="http://www.w3.org/1999/xlink" width="64px" height="64px" viewBox="0 0 64 64" version="1.1">
<g id="surface1">
<path style=" stroke:none;fill-rule:nonzero;fill:rgb(63.921569%,21.176471%,22.352941%);fill-opacity:1;" d="M 10.671875 0 C 9.296875 0 8 1.355469 8 2.789062 L 8 61.210938 C 8 62.566406 9.375 64 10.671875 64 L 53.328125 64 C 54.625 64 56 62.566406 56 61.210938 L 56 18 L 38 0 Z M 10.671875 0 "/>
<path style=" stroke:none;fill-rule:nonzero;fill:rgb(0%,0%,0%);fill-opacity:0.196078;" d="M 42 18 L 56 32 L 56 18 Z M 42 18 "/>
<path style=" stroke:none;fill-rule:nonzero;fill:rgb(100%,100%,100%);fill-opacity:0.392157;" d="M 38 0 L 55.984375 18 L 40.757812 18 C 39.410156 18 38 16.574219 38 15.226562 Z M 38 0 "/>
<path style=" stroke:none;fill-rule:nonzero;fill:rgb(100%,100%,100%);fill-opacity:1;" d="M 32 23.992188 C 25.371094 23.992188 20 25.671875 20 27.746094 L 20 30.742188 C 20 32.816406 25.371094 34.496094 32 34.496094 C 38.628906 34.496094 44 32.816406 44 30.742188 L 44 27.746094 C 44 25.671875 38.628906 23.992188 32 23.992188 Z M 32 23.992188 "/>
<path style=" stroke:none;fill-rule:nonzero;fill:rgb(100%,100%,100%);fill-opacity:1;" d="M 31.964844 35.992188 C 26.585938 35.992188 22.058594 34.890625 20.527344 33.371094 C 20.167969 33.722656 20 34.101562 20 34.496094 L 20 37.496094 C 20 39.570312 25.371094 41.25 32 41.25 C 38.628906 41.25 44 39.570312 44 37.496094 L 44 34.496094 C 44 34.101562 43.789062 33.722656 43.4375 33.371094 C 41.90625 34.890625 37.335938 35.992188 31.964844 35.992188 Z M 31.964844 35.992188 "/>
<path style=" stroke:none;fill-rule:nonzero;fill:rgb(100%,100%,100%);fill-opacity:1;" d="M 31.964844 42.742188 C 26.585938 42.742188 22.058594 41.644531 20.527344 40.125 C 20.167969 40.476562 20 40.851562 20 41.25 L 20 44.246094 C 20 46.320312 25.371094 48 32 48 C 38.628906 48 44 46.320312 44 44.246094 L 44 41.25 C 44 40.851562 43.789062 40.476562 43.4375 40.125 C 41.90625 41.644531 37.335938 42.742188 31.964844 42.742188 Z M 31.964844 42.742188 "/>
</g>
</svg>

<svg xmlns="http://www.w3.org/2000/svg" viewBox="0 0 64 64">
 <g>
  <path d="m 10.672 0 c -1.375 0 -2.672 1.355 -2.672 2.789 l 0 58.42 c 0 1.355 1.375 2.789 2.672 2.789 l 42.656 0 c 1.297 0 2.672 -1.434 2.672 -2.789 l 0 -43.21 l -18 -18 m -27.328 0" style="fill:#a33638;fill-opacity:1;stroke:none;fill-rule:nonzero"/>
  <path d="m 42 18 l 14 14 l 0 -14 m -14 0" style="fill:#000;fill-opacity:0.196;stroke:none;fill-rule:nonzero"/>
  <path d="m 38 0 l 17.984 18 l -15.227 0 c -1.348 0 -2.758 -1.426 -2.758 -2.773 m 0 -15.227" style="fill:#fff;fill-opacity:0.392;stroke:none;fill-rule:nonzero"/>
  <path d="m 32 23.992 c -6.629 0 -12 1.68 -12 3.754 l 0 2.996 c 0 2.074 5.371 3.754 12 3.754 c 6.629 0 12 -1.68 12 -3.754 l 0 -2.996 c 0 -2.074 -5.371 -3.754 -12 -3.754 m 0 0" style="fill:#fff;fill-opacity:1;stroke:none;fill-rule:nonzero"/>
  <path d="m 31.965 35.992 c -5.379 0 -9.906 -1.102 -11.438 -2.621 c -0.359 0.352 -0.527 0.73 -0.527 1.125 l 0 3 c 0 2.074 5.371 3.754 12 3.754 c 6.629 0 12 -1.68 12 -3.754 l 0 -3 c 0 -0.395 -0.211 -0.773 -0.563 -1.125 c -1.531 1.52 -6.102 2.621 -11.473 2.621 m 0 0" style="fill:#fff;fill-opacity:1;stroke:none;fill-rule:nonzero"/>
  <path d="m 31.965 42.742 c -5.379 0 -9.906 -1.098 -11.438 -2.617 c -0.359 0.352 -0.527 0.727 -0.527 1.125 l 0 2.996 c 0 2.074 5.371 3.754 12 3.754 c 6.629 0 12 -1.68 12 -3.754 l 0 -2.996 c 0 -0.398 -0.211 -0.773 -0.563 -1.125 c -1.531 1.52 -6.102 2.617 -11.473 2.617 m 0 0" style="fill:#fff;fill-opacity:1;stroke:none;fill-rule:nonzero"/>
 </g>
</svg>
